X: 12027
T: Eric Stephenson Of Crookhill
R: jig
M: 6/8
K: Bmixolydian
K:B
|:B,DF B2B|c2f dcB|EGe dcB|F2F dec|
BGA BGF|BFf dcB|EGe dfc|1 cBA FED:|2 cBA Bdf||
|:g3 dcB|G3 GAB|f2c cBA|FBd cBA|
G2G CDE|FGA BGF|EGe dfc|1 cBA Bdf:|2 cBA FED||

